src/lib/packages/icons/src/assets/filled/chat-star.svg

<svg width="24" height="24" viewBox="0 0 24 24" fill="none" xmlns="http://www.w3.org/2000/svg">
<path d="M12.001 3C7.031 3 3.00197 7.02902 3.00197 11.999C3.00197 13.339 3.30205 14.619 3.83205 15.758C4.04205 16.198 4.04211 16.708 3.89211 17.178L3.05202 19.678C2.79202 20.458 3.54204 21.208 4.32204 20.948L6.82204 20.108C7.29204 19.958 7.80196 19.958 8.24196 20.168C9.38196 20.698 10.662 20.998 12.002 20.998C16.972 20.998 21.001 16.969 21.001 11.999C21 7.02902 16.971 3 12.001 3ZM16.106 11.488L14.5759 12.968C14.4639 13.076 14.413 13.232 14.44 13.385L14.7901 15.41C14.8611 15.821 14.4279 16.134 14.0559 15.941L12.22 14.983C12.082 14.911 11.918 14.911 11.781 14.983L9.94607 15.94C9.57407 16.134 9.13996 15.82 9.21096 15.409L9.56106 13.385C9.58706 13.232 9.53607 13.076 9.42507 12.968L7.89504 11.488C7.61404 11.216 7.769 10.742 8.157 10.686L10.2739 10.381C10.4279 10.359 10.5609 10.263 10.6299 10.124L11.5471 8.28101C11.7331 7.90701 12.2701 7.90701 12.4561 8.28101L13.3731 10.124C13.4421 10.263 13.575 10.359 13.729 10.381L15.846 10.686C16.233 10.742 16.387 11.216 16.106 11.488Z" fill="currentColor"/>
</svg>

<svg xmlns="http://www.w3.org/2000/svg" width="24" height="24" fill="none"><path fill="currentColor" d="M12.001 3a9 9 0 0 0-8.999 8.999c0 1.34.3 2.62.83 3.759.21.44.21.95.06 1.42l-.84 2.5c-.26.78.49 1.53 1.27 1.27l2.5-.84c.47-.15.98-.15 1.42.06 1.14.53 2.42.83 3.76.83A8.999 8.999 0 1 0 12.001 3Zm4.105 8.488-1.53 1.48a.466.466 0 0 0-.136.417l.35 2.025a.506.506 0 0 1-.734.531l-1.836-.958a.473.473 0 0 0-.439 0l-1.835.957a.506.506 0 0 1-.735-.531l.35-2.024a.472.472 0 0 0-.136-.417l-1.53-1.48a.47.47 0 0 1 .262-.802l2.117-.305a.471.471 0 0 0 .356-.257l.917-1.843a.508.508 0 0 1 .91 0l.916 1.843a.471.471 0 0 0 .356.257l2.117.305a.47.47 0 0 1 .26.802Z"/></svg>
